picto/meeting-point.svg

<svg class="color-immutable" width="24" height="24" viewBox="0 0 24 24" fill="none" xmlns="http://www.w3.org/2000/svg"><path d="M0 22.5V1.5C0 0.675 0.675 0 1.5 0H22.5C23.325 0 24 0.675 24 1.5V22.5C24 23.325 23.325 24 22.5 24H1.5C0.675 24 0 23.325 0 22.5Z" fill="#2D327D"/><path d="M12 7.81198C9.68899 7.81198 7.81299 9.68798 7.81299 11.999C7.81299 14.31 9.68899 16.186 12 16.186C14.311 16.186 16.187 14.31 16.187 11.999C16.187 9.68798 14.311 7.81198 12 7.81198Z" fill="white"/><path d="M7.55899 17.248L7.42499 20.343L8.50099 19.266V15.498H4.73299L3.65699 16.575L6.75199 16.44L2.86499 20.327L3.67199 21.134L7.55899 17.248Z" fill="white"/><path d="M3.65699 7.42399L4.73299 8.50099H8.50099V4.73299L7.42499 3.65599L7.55899 6.75099L3.67199 2.86499L2.86499 3.67199L6.75199 7.55899L3.65699 7.42399Z" fill="white"/><path d="M20.343 16.575L19.267 15.498H15.499V19.266L16.575 20.343L16.441 17.248L20.328 21.134L21.135 20.327L17.248 16.44L20.343 16.575Z" fill="white"/><path d="M16.441 6.75099L16.575 3.65599L15.499 4.73299V8.50099H19.267L20.343 7.42399L17.248 7.55899L21.135 3.67199L20.328 2.86499L16.441 6.75099Z" fill="white"/></svg>

<svg class="color-immutable" width="24" height="24" viewBox="0 0 24 24" fill="none" xmlns="http://www.w3.org/2000/svg"><g clip-path="url(#a)"><path d="M0 22.5v-21C0 .675.675 0 1.5 0h21c.825 0 1.5.675 1.5 1.5v21c0 .825-.675 1.5-1.5 1.5h-21C.675 24 0 23.325 0 22.5Z" fill="#2D327D"/><path d="M12 7.812a4.189 4.189 0 0 0-4.187 4.187A4.189 4.189 0 0 0 12 16.186a4.189 4.189 0 0 0 4.187-4.187A4.189 4.189 0 0 0 12 7.812ZM7.559 17.248l-.134 3.095 1.076-1.077v-3.768H4.733l-1.076 1.077 3.095-.135-3.887 3.887.807.807 3.887-3.886ZM3.657 7.424l1.076 1.077h3.768V4.733L7.425 3.656l.134 3.095-3.887-3.886-.807.807 3.887 3.887-3.095-.135ZM20.343 16.575l-1.076-1.077h-3.768v3.768l1.076 1.077-.134-3.095 3.887 3.886.807-.807-3.887-3.887 3.095.135ZM16.441 6.751l.134-3.095-1.076 1.077v3.768h3.768l1.076-1.077-3.095.135 3.887-3.887-.807-.807-3.887 3.886Z" fill="#fff"/></g><defs><clipPath id="a"><path fill="#fff" d="M0 0h24v24H0z"/></clipPath></defs></svg>
